Lila_HD/status/scalable/folder-open-symbolic.svg

<?xml version="1.0" encoding="UTF-8" standalone="no"?>
<!-- Created with Inkscape (http://www.inkscape.org/) -->

<svg
   xmlns:osb="http://www.openswatchbook.org/uri/2009/osb"
   xmlns:dc="http://purl.org/dc/elements/1.1/"
   xmlns:cc="http://creativecommons.org/ns#"
   xmlns:rdf="http://www.w3.org/1999/02/22-rdf-syntax-ns#"
   xmlns:svg="http://www.w3.org/2000/svg"
   xmlns="http://www.w3.org/2000/svg"
   xmlns:xlink="http://www.w3.org/1999/xlink"
   xmlns:sodipodi="http://sodipodi.sourceforge.net/DTD/sodipodi-0.dtd"
   xmlns:inkscape="http://www.inkscape.org/namespaces/inkscape"
   sodipodi:docname="folder-open-symbolic.svg"
   inkscape:export-filename="/home/sam/source-symbolic.png"
   inkscape:export-xdpi="270"
   inkscape:export-ydpi="270"
   height="16"
   id="svg7384"
   style="enable-background:new"
   version="1.1"
   inkscape:version="0.92.1 r15371"
   width="16">
  <sodipodi:namedview
     inkscape:bbox-nodes="true"
     inkscape:bbox-paths="true"
     bordercolor="#666666"
     borderlayer="false"
     borderopacity="1"
     inkscape:current-layer="layer1-3"
     inkscape:cx="8"
     inkscape:cy="8"
     gridtolerance="10"
     inkscape:guide-bbox="true"
     guidetolerance="10"
     id="namedview88"
     inkscape:object-nodes="true"
     inkscape:object-paths="true"
     objecttolerance="10"
     pagecolor="#ffffff"
     inkscape:pageopacity="0"
     inkscape:pageshadow="2"
     showborder="true"
     showgrid="false"
     showguides="true"
     inkscape:showpageshadow="false"
     inkscape:snap-bbox="true"
     inkscape:snap-bbox-edge-midpoints="false"
     inkscape:snap-bbox-midpoints="false"
     inkscape:snap-center="false"
     inkscape:snap-global="true"
     inkscape:snap-grids="true"
     inkscape:snap-intersection-paths="true"
     inkscape:snap-midpoints="true"
     inkscape:snap-nodes="true"
     inkscape:snap-object-midpoints="true"
     inkscape:snap-others="true"
     inkscape:snap-page="false"
     inkscape:snap-smooth-nodes="true"
     inkscape:snap-to-guides="true"
     inkscape:window-height="701"
     inkscape:window-maximized="0"
     inkscape:window-width="1362"
     inkscape:window-x="0"
     inkscape:window-y="28"
     inkscape:zoom="22.09375">
    <inkscape:grid
       color="#000000"
       dotted="false"
       empcolor="#0800ff"
       empopacity="0.4627451"
       empspacing="4"
       enabled="true"
       id="grid4866"
       opacity="0.16470588"
       originx="-24"
       originy="-426"
       snapvisiblegridlinesonly="true"
       spacingx="0.25"
       spacingy="0.25"
       type="xygrid"
       visible="true" />
  </sodipodi:namedview>
  <metadata
     id="metadata90">
    <rdf:RDF>
      <cc:Work
         rdf:about="">
        <dc:format>image/svg+xml</dc:format>
        <dc:type
           rdf:resource="http://purl.org/dc/dcmitype/StillImage" />
        <dc:title>Paper Symbolic Icon Theme</dc:title>
        <dc:date>2017</dc:date>
        <dc:creator>
          <cc:Agent>
            <dc:title>Cristian Pozzessere &quot;ilnanny&quot;</dc:title>
          </cc:Agent>
        </dc:creator>
        <dc:subject>
          <rdf:Bag>
            <rdf:li>Global language</rdf:li>
          </rdf:Bag>
        </dc:subject>
        <dc:description>Playing with Inkscape on Gnu/Linux O. S.</dc:description>
        <dc:contributor>
          <cc:Agent>
            <dc:title>In the night, alone like a dog.</dc:title>
          </cc:Agent>
        </dc:contributor>
      </cc:Work>
    </rdf:RDF>
  </metadata>
  <title
     id="title8473">Paper Symbolic Icon Theme</title>
  <defs
     id="defs7386">
    <linearGradient
       id="linearGradient5606"
       osb:paint="solid">
      <stop
         id="stop5608"
         offset="0"
         style="stop-color:#000000;stop-opacity:1;" />
    </linearGradient>
    <filter
       inkscape:collect="always"
       color-interpolation-filters="sRGB"
       id="filter7554">
      <feBlend
         inkscape:collect="always"
         id="feBlend7556"
         in2="BackgroundImage"
         mode="darken" />
    </filter>
    <linearGradient
       id="linearGradient4154"
       inkscape:collect="always">
      <stop
         id="stop4156"
         offset="0"
         style="stop-color:#000000;stop-opacity:1;" />
      <stop
         id="stop4158"
         offset="1"
         style="stop-color:#000000;stop-opacity:0;" />
    </linearGradient>
    <linearGradient
       x1="434.16153"
       gradientTransform="matrix(0.2756997,0,0,0.21435076,-106.8439,935.45103)"
       gradientUnits="userSpaceOnUse"
       x2="397.2283"
       y2="495.30789"
       y1="548.88599"
       id="linearGradient4178"
       xlink:href="#linearGradient4291"
       inkscape:collect="always" />
    <linearGradient
       gradientTransform="matrix(0.26437134,0,0,0.26378351,-102.28587,909.42679)"
       y2="511.798"
       x2="426.57144"
       y1="498.798"
       x1="396.57144"
       gradientUnits="userSpaceOnUse"
       id="linearGradient4225"
       xlink:href="#linearGradient4227"
       inkscape:collect="always" />
    <linearGradient
       inkscape:collect="always"
       id="linearGradient4227">
      <stop
         style="stop-color:#f5f5f5;stop-opacity:1"
         offset="0"
         id="stop4229" />
      <stop
         style="stop-color:#f9f9f9;stop-opacity:1"
         offset="1"
         id="stop4231" />
    </linearGradient>
    <linearGradient
       gradientUnits="userSpaceOnUse"
       y2="507.798"
       x2="416.57144"
       y1="487.798"
       x1="388.57144"
       id="linearGradient4297"
       xlink:href="#linearGradient4291"
       inkscape:collect="always"
       gradientTransform="matrix(0.2756997,0,0,0.2756997,-106.8439,901.99095)" />
    <linearGradient
       id="linearGradient4291"
       inkscape:collect="always">
      <stop
         id="stop4293"
         offset="0"
         style="stop-color:#555555;stop-opacity:1" />
      <stop
         id="stop4295"
         offset="1"
         style="stop-color:#676767;stop-opacity:1" />
    </linearGradient>
    <linearGradient
       gradientUnits="userSpaceOnUse"
       y2="1051.3622"
       x2="8"
       y1="1037.3622"
       x1="5"
       id="linearGradient4160"
       xlink:href="#linearGradient4154"
       inkscape:collect="always"
       gradientTransform="matrix(1,0,0,0.77773226,0,233.90575)" />
  </defs>
  <g
     inkscape:groupmode="layer"
     id="layer9"
     inkscape:label="status"
     style="display:inline"
     transform="translate(-265.0002,209)">
    <g
       transform="translate(264.9902,-1245.3613)"
       id="layer1-3"
       inkscape:label="Livello 1">
      <path
         sodipodi:nodetypes="ccccccc"
         d="M 0.0713497,1044.991 16,1045.3622 v -7 H 9 l -1,-2 H 0 Z"
         id="rect4180"
         style="fill:url(#linearGradient4297);fill-opacity:1"
         inkscape:connector-curvature="0" />
      <rect
         style="color:#000000;clip-rule:nonzero;display:inline;overflow:visible;visibility:visible;opacity:1;isolation:auto;mix-blend-mode:normal;color-interpolation:sRGB;color-interpolation-filters:linearRGB;solid-color:#000000;solid-opacity:1;fill:url(#linearGradient4225);fill-opacity:1;fill-rule:nonzero;stroke:none;stroke-width:1;stroke-linecap:butt;stroke-linejoin:miter;stroke-miterlimit:4;stroke-dasharray:none;stroke-dashoffset:0;stroke-opacity:1;marker:none;color-rendering:auto;image-rendering:auto;shape-rendering:auto;text-rendering:auto;enable-background:accumulate"
         id="rect4223"
         width="15.580155"
         height="5"
         x="0.22097087"
         y="1040.3622"
         rx="0.69716454"
         ry="0.76202267" />
      <path
         sodipodi:nodetypes="cccscccc"
         id="rect4113"
         d="m 0,1044.5845 -3.0178375e-7,0.8063 L -7e-7,1051.5932 c 0,0.3928 0.50711147,0.7668 1.0056359,0.7668 H 14.996728 c 0.504737,0.01 1.023268,-0.3569 1.023268,-0.761 L 16,1044.5845 Z"
         style="fill:url(#linearGradient4178);stroke-width:0.88189131;fill-opacity:1.0"
         inkscape:connector-curvature="0" />
      <path
         sodipodi:nodetypes="ccccc"
         d="m 0,1044.5845 -3.017838e-7,0.8063 L 16,1045.3622 v -0.7777 z"
         id="path4224"
         style="opacity:0.3;fill:#ffffff;fill-opacity:1;fill-rule:evenodd;stroke-width:0.88189131"
         inkscape:connector-curvature="0" />
      <path
         sodipodi:nodetypes="cccccc"
         d="m 8,1036.3622 v 3 h 8 v -1 H 9 Z"
         id="path4196"
         style="opacity:0.3;fill:#ffffff;fill-opacity:1;fill-rule:evenodd"
         inkscape:connector-curvature="0" />
      <path
         inkscape:connector-curvature="0"
         id="path9304"
         d="m 0,1050.8154 v 0.7778 c 0,0.3928 0.50733495,0.767 1.0058594,0.767 H 14.996094 c 0.504737,0.01 1.023437,-0.3569 1.023437,-0.761 l -0.002,-0.7701 c -0.0067,0.401 -0.520024,0.7612 -1.021484,0.7534 H 1.0058124 C 0.50733495,1051.5825 0,1051.2083 0,1050.8154 Z"
         style="color:#000000;clip-rule:nonzero;display:inline;overflow:visible;visibility:visible;opacity:0.2;isolation:auto;mix-blend-mode:normal;color-interpolation:sRGB;color-interpolation-filters:linearRGB;solid-color:#000000;solid-opacity:1;fill:#000000;fill-opacity:1;fill-rule:nonzero;stroke:none;stroke-width:0.88189131;stroke-linecap:butt;stroke-linejoin:miter;stroke-miterlimit:4;stroke-dasharray:none;stroke-dashoffset:0;stroke-opacity:1;marker:none;color-rendering:auto;image-rendering:auto;shape-rendering:auto;text-rendering:auto;enable-background:accumulate" />
      <path
         inkscape:connector-curvature="0"
         id="path4152"
         d="m 0,1045.3622 8,6.2219 h 8 v -6.2219 z"
         style="opacity:0.41645885;fill:url(#linearGradient4160);fill-opacity:1;fill-rule:evenodd;stroke:none;stroke-width:0.88189131px;stroke-linecap:butt;stroke-linejoin:miter;stroke-opacity:1" />
    </g>
  </g>
  <g
     inkscape:groupmode="layer"
     id="layer10"
     inkscape:label="devices"
     style="display:inline;filter:url(#filter7554)"
     transform="translate(-265.0002,209)" />
  <g
     inkscape:groupmode="layer"
     id="layer1"
     inkscape:label="places"
     style="display:inline"
     transform="translate(-24,-408)" />
  <g
     inkscape:groupmode="layer"
     id="layer14"
     inkscape:label="mimetypes"
     style="display:inline"
     transform="translate(-265.0002,209)" />
  <g
     inkscape:groupmode="layer"
     id="layer15"
     inkscape:label="emblems"
     style="display:inline"
     transform="translate(-265.0002,209)" />
  <g
     inkscape:groupmode="layer"
     id="g71291"
     inkscape:label="emotes"
     style="display:inline"
     transform="translate(-265.0002,209)" />
  <g
     inkscape:groupmode="layer"
     id="layer2"
     inkscape:label="categories"
     style="display:inline"
     transform="translate(-24,-258)" />
  <g
     inkscape:groupmode="layer"
     id="g6058"
     inkscape:label="apps"
     style="display:inline"
     transform="translate(-24,-258)" />
  <g
     inkscape:groupmode="layer"
     id="layer12"
     inkscape:label="actions"
     style="display:inline"
     transform="translate(-265.0002,209)" />
</svg>

<?xml version="1.0" encoding="UTF-8"?>
<!-- Created with Inkscape (http://www.inkscape.org/) -->
<svg enable-background="new" version="1.1" viewBox="0 0 16 16" xmlns="http://www.w3.org/2000/svg" xmlns:cc="http://creativecommons.org/ns#" xmlns:dc="http://purl.org/dc/elements/1.1/" xmlns:osb="http://www.openswatchbook.org/uri/2009/osb" xmlns:rdf="http://www.w3.org/1999/02/22-rdf-syntax-ns#" xmlns:xlink="http://www.w3.org/1999/xlink">
<metadata>
<rdf:RDF>
<cc:Work rdf:about="">
<dc:format>image/svg+xml</dc:format>
<dc:type rdf:resource="http://purl.org/dc/dcmitype/StillImage"/>
<dc:title>Paper Symbolic Icon Theme</dc:title>
<dc:date>2017</dc:date>
<dc:creator>
<cc:Agent>
<dc:title>Cristian Pozzessere "ilnanny"</dc:title>
</cc:Agent>
</dc:creator>
<dc:subject>
<rdf:Bag>
<rdf:li>Global language</rdf:li>
</rdf:Bag>
</dc:subject>
<dc:description>Playing with Inkscape on Gnu/Linux O. S.</dc:description>
<dc:contributor>
<cc:Agent>
<dc:title>In the night, alone like a dog.</dc:title>
</cc:Agent>
</dc:contributor>
</cc:Work>
</rdf:RDF>
</metadata>
<title>Paper Symbolic Icon Theme</title>
<defs>
<filter color-interpolation-filters="sRGB">
<feBlend in2="BackgroundImage" mode="darken"/>
</filter>
<linearGradient id="linearGradient4178" x1="434.16" x2="397.23" y1="548.89" y2="495.31" gradientTransform="matrix(.2757 0 0 .21435 -106.84 935.45)" gradientUnits="userSpaceOnUse" xlink:href="#linearGradient4291"/>
<linearGradient id="linearGradient4225" x1="396.57" x2="426.57" y1="498.8" y2="511.8" gradientTransform="matrix(.26437 0 0 .26378 -102.29 909.43)" gradientUnits="userSpaceOnUse">
<stop stop-color="#f5f5f5" offset="0"/>
<stop stop-color="#f9f9f9" offset="1"/>
</linearGradient>
<linearGradient id="linearGradient4297" x1="388.57" x2="416.57" y1="487.8" y2="507.8" gradientTransform="matrix(.2757 0 0 .2757 -106.84 901.99)" gradientUnits="userSpaceOnUse" xlink:href="#linearGradient4291"/>
<linearGradient id="linearGradient4291">
<stop stop-color="#555" offset="0"/>
<stop stop-color="#676767" offset="1"/>
</linearGradient>
<linearGradient id="linearGradient4160" x1="5" x2="8" y1="1037.4" y2="1051.4" gradientTransform="matrix(1 0 0 .77773 0 233.91)" gradientUnits="userSpaceOnUse">
<stop offset="0"/>
<stop stop-opacity="0" offset="1"/>
</linearGradient>
</defs>
<g transform="translate(-265 209)">
<g transform="translate(264.99 -1245.4)">
<path d="m0.07135 1045 15.929 0.3712v-7h-7l-1-2h-8z" fill="url(#linearGradient4297)"/>
<rect x=".22097" y="1040.4" width="15.58" height="5" rx=".69716" ry=".76202" color="#000000" color-rendering="auto" enable-background="accumulate" fill="url(#linearGradient4225)" image-rendering="auto" shape-rendering="auto" solid-color="#000000" style="isolation:auto;mix-blend-mode:normal"/>
<path d="m0 1044.6-3.0178e-7 0.8063-3.9822e-7 6.2024c0 0.3928 0.50711 0.7668 1.0056 0.7668h13.991c0.50474 0.01 1.0233-0.3569 1.0233-0.761l-0.019996-7.0145z" fill="url(#linearGradient4178)" stroke-width=".88189"/>
<path d="m0 1044.6-3.0178e-7 0.8063 16-0.0286v-0.7777z" fill="#fff" fill-rule="evenodd" opacity=".3" stroke-width=".88189"/>
<path d="m8 1036.4v3h8v-1h-7z" fill="#fff" fill-rule="evenodd" opacity=".3"/>
<path d="m0 1050.8v0.7778c0 0.3928 0.50733 0.767 1.0059 0.767h13.99c0.50474 0.01 1.0234-0.3569 1.0234-0.761l-2e-3 -0.7701c-0.0067 0.401-0.52002 0.7612-1.0215 0.7534h-13.99c-0.49848 0-1.0058-0.3742-1.0058-0.7671z" color="#000000" color-rendering="auto" enable-background="accumulate" image-rendering="auto" opacity=".2" shape-rendering="auto" solid-color="#000000" style="isolation:auto;mix-blend-mode:normal"/>
<path d="m0 1045.4 8 6.2219h8v-6.2219z" fill="url(#linearGradient4160)" fill-rule="evenodd" opacity=".41646"/>
</g>
</g>
</svg>
